X:1
T:Cake-Walk Lindy.
T:Cake-Walk Lindy.
T:ED. B. CLAYPOOLE.
T:Copyright 1900 by M. WITMARK &amp; SONS.
T:Copyright 1900 by M. WITMARK &amp; SONS.
T:Copyright 1900 by M. WITMARK &amp; SONS.
T:Copyright 1900 by M. WITMARK &amp; SONS.
C:ED. B. CLAYPOOLE.
Z:Copyright 1900 by M. WITMARK & SONS.
%%score { ( 1 4 ) | ( 2 3 ) }
L:1/8
Q:1/4=90
M:2/4
K:G
V:1 treble nm="Piano" snm="Pno."
V:4 treble 
V:2 bass 
V:3 bass 
V:1
"^Tempo di Marcia."!f! d | !>!b>g (a/g/)e | !>!d>e (d/B/)G | ((!>![^CGA]4 | %4
 !>![DFAd]))!>(! .d/.d/ .d.d!>)! |:!mf! ([db]/g)a/ [Bg]>d | ([db]/g)a/ [Bg]>d | %7
 .[ce] !>![cg]2 [ce] | .[Bg] !>![Bd]2 d | ([db]/g)a/ [Bg]>d | ([db]/g)a/ [Bg]>d | %11
!<(! [^ce] [Gg]2 [Bgb]!<)! |!>(! [Afa].d/.d/ .d.d!>)! |!mf! ([db]/g)a/ [Bg]>d | ([db]/g)a/ [Bg]>d | %15
 .[ce] !>![cg]2 [ce] |!<(! .[Bg] !>![Bd]2 d!<)! |!f! !>!b>g (a/g/)e | !>!d>e (d/B/)G | %19
!>(! ((!>![CDA]4!>)! |1 .[B,DG])) .d/.d/!mf! .d.d :|2 .[B,DG]!<(! d/d/ (^c/d/g/b/)!<)! |: %22
!ff! [dd']4 | [cc']2 [Aa]2 | [Bb]2 [Gg]2 | [Ff]2 [Ee]2 | (([Dd]3 [Ff])) | [Aa]2 [ee']2 | %28
!<(! [dd']4-!<)! | [dd'] [Bb][^A^a][Bb] | [dd']4 | [cc']2 [Aa]2 | [cc']4 | [Bb]2 [^G^g]2 | %34
 [Aa] !>![Ee]2 [Bb] | [Aa] !>![Dd]2 [Aa] | [Gg]z/(E/ DB,) |1 .G, d/d/ (^c/d/g/b/) :|2 %38
!<(! G, z!<)!!ff! [GBdg] ||[K:C][M:2/4]"^TRIO." [Gg] |:!mf! [cegc']4 | [Acea]2 [Gceg]2 | %42
 [^Fce]2 [Fcd]2 | (^GA) [^Fd][Fe] | [=Fd]2 [FB]2 | ([FA]/B)G/ [FA][FB] |!<(! (([C^D^FA]4!<)! | %47
!>(! .[CEG]))G/G/!>)! G[Gg] | [cegc']4 | [Acea]2 [Gceg]2 | [^Fce]2 [Fcd]2 | (^GA) [^Fd][Fe] | %52
 [=Fd]2 [FB]2 | [FA] [FB]2 [FG] | ((!>![FGd]4 |1!>(! [EGc]))G/G/ G [Gg]!>)! :|2 %56
 [EGc]!<(! [Gg][Aa][Bb]!<)! ||!f! [cc'][cc']- [cc']/(e/[cc']) | [Aa][Aa]- [Aa]/e/[Gg] | %59
 .d(g/^c/) .d(g/c/) | .d!<(! [G,G][A,A]!<)![B,B] |!ff! !>![Cc]>[B,B] [Cc][Dd] | %62
 [Ee] z!<(! ((!>![A^da]2 | .[Be^g]))!<)! z !>![egbe'] z | z!<(! [Gg][Aa][Bb]!<)! | %65
!ff! [cc'][cc']- [cc']/(e/[cc']) | [Aa][Aa]- [Aa]/e/[Gg] | .d(g/^c/) .d(g/c/) | %68
 .d!<(! [G,G][A,A]!<)![B,B] | !>![Cc]>[Dd] [Ee][Ff] | [Gg] z!ff!!<(! ((!>![c_e^fc']2 | %71
 [Bdgb])) z!<)! !>![gbd'g'] z | z!>(! G/G/ GG!>)! ||!mf! (g4 | f2 d2) | (e2 c2 | B2 A2) | (G3 B) | %78
 d2 a2 | g4- | g (Pe^de) | g4 | f2 d2 | f4 | e2 ^c2 | [^Fd] !>![FA]2 [Fe] | [=Fd] !>![FG]2 [FGd] | %87
 [EGc]z/(A/ GE) | C!<(! [Gg]/[Gg]/ [Gg][Gg]!<)! ||!fff! [cegc']4 | [Acea]2 [Gceg]2 | %91
 [E^Fce]2 [DFcd]2 | [^G^g][Aa][dd'][ee'] | [d=fbd']2 [Bfb]2 | [Afa]/[Bb][Gg]/ [Afa][Bfb] | %95
 (([Ac^d^fa]4 | [Gceg]))!<(!.[Gg]/.[Gg]/ .[Gg].[Gg]!<)! | [cegc']4 | [Acea]2 [Gceg]2 | %99
 [E^Fce]2 [DFcd]2 | [^G^g][Aa][dd'][ee'] | [d=fbd']2 [Bfb]2 | [Afa] [Bfb]2 [Gg] | %103
!<(! ((!>![dfd']4 | .[cec']))!<)! z !>![cegc'] |] %105
V:2
 z |[K:treble] d2 .^c.^A | B2[K:bass] D/B,/G, | z !>![G,,G,]!>![F,,F,]!>![E,,E,] | %4
 !>![D,,D,] z z2 |: G,[B,D] B,,[B,D] | G,[B,D] G,[B,D] | C,[G,CE] C,[G,CE] | G,[B,D] B,,[B,D] | %9
 G,[B,D] B,,[B,D] | G,[B,D] G,[B,D] | E,[G,A,^C] A,,[G,A,C] | %12
 !>![D,D]!>![=C,=C] !>![B,,B,]!>![A,,A,] | G,[B,D] B,,[B,D] | G,[B,D] G,[B,D] | C,[G,CE] C,[G,CE] | %16
 x3 z |[K:treble] d2 .^c.^A | B2[K:bass] (D/B,/)G, | z !>![D,,D,]!>![E,,E,]!>![F,,F,] |1 %20
 .[G,,G,] z z2 :|2 .[G,,G,] z z2 |: F,,[D,F,C] D,,[D,F,C] | F,,[D,F,C] D,,[D,F,C] | %24
 G,,[D,G,B,] D,,[D,G,B,] | G,,[D,G,B,] D,,[D,G,B,] | F,,[D,F,C] D,,[D,F,C] | %27
 F,,[D,F,C] [D,,D,][D,F,C] | !>![G,,G,]!>![F,,F,] !>![G,,G,]!>![B,,B,] | !>![D,D] z z2 | %30
 B,,[E,^G,D] E,,[E,G,D] | A,,[E,A,C] E,,[E,A,C] | A,,[D,F,C] D,,[D,F,C] | G,,[D,G,B,] E,,[E,B,D] | %34
 F,,[=G,A,^C] A,,[G,A,C] | D,,[D,F,=C] D,,[D,F,C] | [G,B,]z/(E,/ D,B,,) |1 .G,, z z2 :|2 %38
 G,, z [G,,,G,,] ||[K:C][M:2/4] z |: C,[E,G,C] G,,[E,G,C] | C,[E,G,C] G,,[E,G,C] | %42
 A,,[D,^F,C] D,,[D,F,C] | A,,[D,^F,C] D,,[D,F,C] | G,,[G,B,] A,,[G,B,] | D,[G,B,] G,,G, | %46
 z !>![C,,C,]!>![^D,,^D,]!>![^F,,^F,] | .[G,,G,] z z2 | C,[E,G,C] G,,[E,G,C] | %49
 C,[E,G,C] G,,[E,G,C] | A,,[D,^F,C] D,,[D,F,C] | A,,[D,^F,C] D,,[D,F,C] | G,,[G,B,] A,,[G,B,] | %53
 D,[G,B,] G,,G, | z [G,,G,][A,,A,][B,,B,] |1 [C,C]G,/G,/ G, z :|2 [C,C] z z2 || %57
 [C,C][C,C] z [C,C] | [A,,A,][A,,A,] z [G,,G,] | [G,B,F][G,^A,E] [G,B,F][G,A,E] | %60
 [G,B,F] [G,,,G,,][A,,,A,,][B,,,B,,] | !>![C,,C,]>[B,,,B,,] [C,,C,][D,,D,] | %62
 [E,,E,] z ((!>![F,,F,]2 | .[E,,E,])) z !>![E,,,E,,] z | z [G,,G,][A,,A,][B,,B,] | %65
 [C,C][C,C] z [C,C] | [A,,A,][A,,A,] z [G,,G,] | [G,B,F][G,^A,E] [G,B,F][G,A,E] | %68
 [G,B,F] [G,,,G,,][A,,,A,,][B,,,B,,] | !>![C,,C,]>[D,,D,] [E,,E,][F,,F,] | %70
 [G,,G,] z ((!>![_A,,_A,]2 | [G,,G,])) z !>![G,,,G,,] z | [G,,,G,,] z z2 || %73
 D,[F,G,B,] G,,[F,G,B,] | D,[F,G,B,] G,,[F,G,B,] | C,[E,G,C] G,,[E,G,C] | C,G, G,,G, | %77
 D,G, G,,[F,G,B,] | D,[F,G,B,] G,,[F,G,B,] | C,[E,G,C] G,,[E,G,C] | C,2 B,,2 | %81
 A,,[=G,A,^C] A,,[=G,A,C] | D,[F,A,D] D,[F,A,D] | G,,[F,G,B,] G,,[F,G,B,] | C,[E,G,C] A,,[A,^C] | %85
 D,[A,=C] D,[A,C] | G,,[G,B,] G,,[G,B,] | [C,G,C]z/(A,/ G,E,) | C, z z2 || C,[E,G,C] G,,[E,G,C] | %90
 C,[E,G,C] G,,[E,G,C] | A,,[D,^F,C] D,,[D,F,C] | A,,"^molto cres."[D,^F,C] D,,[D,F,C] | %93
 G,,[=F,G,B,] G,,[F,G,B,] | D,[F,G,B,] G,,[F,G,B,] | z !>![C,,C,]!>![^D,,^D,]!>![^F,,^F,] | %96
 .[G,,G,]!>![=F,,=F,]!>![E,,E,]!>![D,,D,] | C,[E,G,C] G,,[E,G,C] | C,[E,G,C] G,,[E,G,C] | %99
 A,,[D,^F,C] D,,[D,F,C] | A,,[D,^F,C]"^molto           cres." D,,[D,F,C] | %101
 D,[=F,G,B,] G,,[F,G,B,] | D,[F,G,B,] G,,[F,G,B,] | z !>![G,,G,]!>![A,,A,]!>![B,,B,] | %104
 .[C,C] z !>![C,,C,] |] %105
V:3
 x |[K:treble] x4 | x2[K:bass] x2 | x4 | x4 |: x4 | x4 | x4 | x4 | x4 | x4 | x4 | x4 | x4 | x4 | %15
 x4 | G,[B,D][B,D] x |[K:treble] x4 | x2[K:bass] x2 | x4 |1 x4 :|2 x4 |: x4 | x4 | x4 | x4 | x4 | %27
 x4 | x4 | x4 | x4 | x4 | x4 | x4 | x4 | x4 | x4 |1 x4 :|2 x3 ||[K:C][M:2/4] x |: x4 | x4 | x4 | %43
 x4 | x4 | x4 | x4 | x4 | x4 | x4 | x4 | x4 | x4 | x4 | x4 |1 x4 :|2 x4 || x4 | x4 | x4 | x4 | x4 | %62
 x4 | x4 | x4 | x4 | x4 | x4 | x4 | x4 | x4 | x4 | x4 || x4 | x4 | x4 | x4 | x4 | x4 | x4 | %80
 C,[E,G,C] B,,[E,^G,=D] | x4 | x4 | x4 | x4 | x4 | x4 | x4 | x4 || x4 | x4 | x4 | x4 | x4 | x4 | %95
 x4 | x4 | x4 | x4 | x4 | x4 | x4 | x4 | x4 | x3 |] %105
V:4
 x | x4 | x4 | x4 | x4 |: x4 | x4 | x4 | x4 | x4 | x4 | x4 | x4 | x4 | x4 | x4 | x4 | x4 | x4 | %19
 x4 |1 x4 :|2 x4 |: z [fa]/[fa]/ [fa][fa] | z [fa]z[df] | z [dg]z[Bd] | z [Bd]z[GB] | %26
 z [FAc]/[FAc]/ [FAc] z | z [cd]z[fc'] | z [gb]/[gb]/ [gb][gb] | x4 | z [^gb]/[gb]/ [gb][gb] | %31
 z [ea]z[ce] | z [fa]/[fa]/ [fa][fa] | z [dg]z[de] | x4 | x4 | x4 |1 x4 :|2 x3 ||[K:C][M:2/4] x |: %40
 x4 | x4 | x4 | x4 | x4 | x4 | x4 | x4 | x4 | x4 | x4 | x4 | x4 | x4 | x4 |1 x4 :|2 x4 || x4 | x4 | %59
 x4 | x4 | x4 | x4 | x4 | x4 | x4 | x4 | x4 | x4 | x4 | x4 | x4 | x4 || z [GB]/[GB]/ [GB][GB] | %74
 z [GB]z[FG] | z [EG]z[EG] | z [CE]z[CE] | z [DF]/[DF]/ [DF] z | z [GB]z[Bf] | z z [ce][ce] | %80
 z x3 | z [A^ce]/[Ace]/ [Ace][Ace] | z [Ad]z[FA] | z [GB]/[GB]/ [GB][GB] | z [Gc]z[GA] | x4 | x4 | %87
 x4 | x4 || x4 | x4 | x4 | x4 | x4 | x4 | x4 | x4 | x4 | x4 | x4 | x4 | x4 | x4 | x4 | x3 |] %105

